images/icons/P_I_icon.svg

<svg width="55" height="55" viewBox="0 0 55 55" fill="none" xmlns="http://www.w3.org/2000/svg">
<rect width="55" height="55" rx="10" fill="#10A694"/>
<path fill-rule="evenodd" clip-rule="evenodd" d="M27.502 14.9712V18.5478C27.502 18.8229 27.7249 19.0459 28 19.0459C28.2751 19.0459 28.498 18.8229 28.498 18.5478V14.9712C29.6446 14.7395 30.5105 13.7243 30.5105 12.5105C30.5105 11.1262 29.3843 10 28 10C26.6157 10 25.4895 11.1262 25.4895 12.5105C25.4895 13.7243 26.3554 14.7395 27.502 14.9712ZM28 10.9961C28.835 10.9961 29.5144 11.6754 29.5144 12.5105C29.5144 13.3455 28.835 14.0249 28 14.0249C27.165 14.0249 26.4856 13.3455 26.4856 12.5105C26.4856 11.6754 27.165 10.9961 28 10.9961ZM33.9032 27.2711C34.1783 27.2711 34.4012 27.0481 34.4012 26.7731V23.1763C34.4012 22.9687 34.2725 22.7829 34.0781 22.71L28.1749 20.4964C28.0621 20.4541 27.938 20.4541 27.8251 20.4964L21.9219 22.71C21.7275 22.7829 21.5988 22.9687 21.5988 23.1763V24.7754C21.5988 25.0504 21.8217 25.2734 22.0968 25.2734C22.3719 25.2734 22.5949 25.0504 22.5949 24.7754V23.895L27.502 25.7351V32.3186L22.5949 30.4785V27.1052C22.5949 26.8301 22.3719 26.6071 22.0968 26.6071C21.8217 26.6071 21.5988 26.8301 21.5988 27.1052V30.8237C21.5988 31.0312 21.7275 31.2171 21.9219 31.29L27.8251 33.5036L27.8254 33.5022C27.8815 33.5233 27.9404 33.5353 28.0001 33.5353C28.059 33.5353 28.1182 33.5249 28.1749 33.5035L34.0781 31.2899C34.2725 31.217 34.4012 31.0312 34.4012 30.8236V29.0945C34.4012 28.8194 34.1783 28.5965 33.9032 28.5965C33.6281 28.5965 33.4051 28.8194 33.4051 29.0945V30.4784L28.498 32.3186V25.7351L33.4051 23.895V26.7731C33.4051 27.0482 33.6281 27.2711 33.9032 27.2711ZM28 24.8581L23.5153 23.1764L28 21.4946L32.4847 23.1764L28 24.8581ZM35.521 33.8166C36.0963 33.3867 36.8096 33.1319 37.5815 33.1319C39.4836 33.1319 41.0311 34.6793 41.0311 36.5815C41.0311 38.4836 39.4836 40.0311 37.5815 40.0311C35.6795 40.0311 34.1319 38.4836 34.1319 36.5815C34.1319 35.8097 34.3867 35.0963 34.8167 34.521L33.6244 33.3288C33.4299 33.1343 33.4299 32.819 33.6244 32.6245C33.8189 32.43 34.1342 32.43 34.3288 32.6245L35.521 33.8166ZM35.128 36.5815C35.128 37.9344 36.2286 39.0351 37.5815 39.0351C38.9344 39.0351 40.035 37.9344 40.035 36.5815C40.035 35.2287 38.9344 34.128 37.5815 34.128C36.2286 34.128 35.128 35.2287 35.128 36.5815ZM18.4185 20.868C19.1903 20.868 19.9037 20.6132 20.479 20.1833L21.6712 21.3755C21.7685 21.4727 21.896 21.5214 22.0234 21.5214C22.1508 21.5214 22.2783 21.4728 22.3756 21.3755C22.5701 21.181 22.5701 20.8656 22.3756 20.6712L21.1834 19.479C21.6133 18.9037 21.8681 18.1903 21.8681 17.4185C21.8681 15.5164 20.3206 13.9689 18.4185 13.9689C16.5165 13.9689 14.9689 15.5164 14.9689 17.4185C14.9689 19.3206 16.5163 20.868 18.4185 20.868ZM18.4185 14.9649C19.7714 14.9649 20.872 16.0656 20.872 17.4184C20.872 18.7713 19.7714 19.8719 18.4185 19.8719C17.0656 19.8719 15.965 18.7713 15.965 17.4184C15.965 16.0656 17.0656 14.9649 18.4185 14.9649ZM28.498 35.4522V39.0288C29.6446 39.2605 30.5105 40.2757 30.5105 41.4895C30.5105 42.8738 29.3843 44 28 44C26.6157 44 25.4895 42.8738 25.4895 41.4895C25.4895 40.2757 26.3554 39.2605 27.502 39.0288V35.4522C27.502 35.1771 27.7249 34.9541 28 34.9541C28.2751 34.9541 28.498 35.1771 28.498 35.4522ZM26.4856 41.4895C26.4856 42.3246 27.165 43.0039 28 43.0039C28.835 43.0039 29.5144 42.3246 29.5144 41.4895C29.5144 40.6545 28.835 39.9751 28 39.9751C27.165 39.9751 26.4856 40.6545 26.4856 41.4895ZM42.4895 24.4895C41.2757 24.4895 40.2605 25.3554 40.0288 26.502H36.4522C36.1771 26.502 35.9541 26.7249 35.9541 27C35.9541 27.2751 36.1771 27.498 36.4522 27.498H40.0288C40.2605 28.6446 41.2757 29.5105 42.4895 29.5105C43.8738 29.5105 45 28.3843 45 27C45 25.6157 43.8738 24.4895 42.4895 24.4895ZM42.4895 28.5144C41.6545 28.5144 40.9751 27.8351 40.9751 27C40.9751 26.1649 41.6545 25.4856 42.4895 25.4856C43.3246 25.4856 44.0039 26.1649 44.0039 27C44.0039 27.8351 43.3246 28.5144 42.4895 28.5144ZM19.5478 27.498H15.9712C15.7395 28.6446 14.7243 29.5105 13.5105 29.5105C12.1262 29.5105 11 28.3843 11 27C11 25.6157 12.1262 24.4895 13.5105 24.4895C14.7243 24.4895 15.7395 25.3554 15.9712 26.502H19.5478C19.8229 26.502 20.0459 26.7249 20.0459 27C20.0459 27.2751 19.8229 27.498 19.5478 27.498ZM11.9961 27C11.9961 27.8351 12.6754 28.5144 13.5105 28.5144C14.3455 28.5144 15.0248 27.8351 15.0248 27C15.0248 26.1649 14.3455 25.4856 13.5105 25.4856C12.6754 25.4856 11.9961 26.1649 11.9961 27ZM33.9766 21.5214C34.104 21.5214 34.2315 21.4728 34.3288 21.3755L35.521 20.1833C36.0964 20.6132 36.8098 20.868 37.5815 20.868C39.4837 20.868 41.0311 19.3206 41.0311 17.4184C41.0311 15.5163 39.4836 13.9688 37.5815 13.9688C35.6795 13.9688 34.1319 15.5163 34.1319 17.4184C34.1319 18.1903 34.3867 18.9036 34.8167 19.4789L33.6244 20.6711C33.4299 20.8656 33.4299 21.181 33.6244 21.3754C33.7217 21.4728 33.8492 21.5214 33.9766 21.5214ZM37.5815 14.9649C38.9344 14.9649 40.0351 16.0656 40.0351 17.4184C40.0351 18.7712 38.9344 19.8719 37.5815 19.8719C36.2286 19.8719 35.128 18.7712 35.128 17.4184C35.128 16.0656 36.2286 14.9649 37.5815 14.9649ZM20.4789 33.8167L21.6711 32.6245C21.8657 32.43 22.181 32.43 22.3755 32.6246C22.57 32.819 22.57 33.1344 22.3755 33.3289L21.1833 34.521C21.6132 35.0964 21.868 35.8097 21.868 36.5816C21.868 38.4837 20.3204 40.0312 18.4184 40.0312C16.5163 40.0312 14.9688 38.4837 14.9688 36.5816C14.9688 34.6794 16.5162 33.132 18.4184 33.132C19.1901 33.132 19.9036 33.3868 20.4789 33.8167ZM15.9649 36.5816C15.9649 37.9344 17.0655 39.0351 18.4184 39.0351C19.7713 39.0351 20.8719 37.9344 20.8719 36.5816C20.8719 35.2287 19.7713 34.1281 18.4184 34.1281C17.0655 34.1281 15.9649 35.2287 15.9649 36.5816Z" fill="white"/>
</svg>

<?xml version="1.0" encoding="utf-8"?>
<!-- Generator: Adobe Illustrator 24.0.2, SVG Export Plug-In . SVG Version: 6.00 Build 0)  -->
<svg version="1.1" id="Layer_1" xmlns="http://www.w3.org/2000/svg" xmlns:xlink="http://www.w3.org/1999/xlink" x="0px" y="0px"
	 viewBox="0 0 55 55" style="enable-background:new 0 0 55 55;" xml:space="preserve">
<style type="text/css">
	.st0{fill:#10A694;}
	.st1{fill-rule:evenodd;clip-rule:evenodd;fill:#FFFFFF;}
</style>
<path class="st0" d="M10,0h35c5.5,0,10,4.5,10,10v35c0,5.5-4.5,10-10,10H10C4.5,55,0,50.5,0,45V10C0,4.5,4.5,0,10,0z"/>
<path class="st1" d="M27.5,15v3.6c0,0.3,0.2,0.5,0.5,0.5s0.5-0.2,0.5-0.5V15c1.1-0.2,2-1.2,2-2.5c0-1.4-1.1-2.5-2.5-2.5
	s-2.5,1.1-2.5,2.5C25.5,13.7,26.4,14.7,27.5,15z M28,11c0.8,0,1.5,0.7,1.5,1.5c0,0.8-0.7,1.5-1.5,1.5s-1.5-0.7-1.5-1.5
	C26.5,11.7,27.2,11,28,11z M33.9,27.3c0.3,0,0.5-0.2,0.5-0.5v-3.6c0-0.2-0.1-0.4-0.3-0.5l-5.9-2.2c-0.1,0-0.2,0-0.3,0l-5.9,2.2
	c-0.2,0.1-0.3,0.3-0.3,0.5v1.6c0,0.3,0.2,0.5,0.5,0.5s0.5-0.2,0.5-0.5v-0.9l4.9,1.8v6.6l-4.9-1.8v-3.4c0-0.3-0.2-0.5-0.5-0.5
	s-0.5,0.2-0.5,0.5v3.7c0,0.2,0.1,0.4,0.3,0.5l5.9,2.2l0,0c0.1,0,0.1,0,0.2,0c0.1,0,0.1,0,0.2,0l5.9-2.2c0.2-0.1,0.3-0.3,0.3-0.5
	v-1.7c0-0.3-0.2-0.5-0.5-0.5c-0.3,0-0.5,0.2-0.5,0.5v1.4l-4.9,1.8v-6.6l4.9-1.8v2.9C33.4,27,33.6,27.3,33.9,27.3z M28,24.9l-4.5-1.7
	l4.5-1.7l4.5,1.7L28,24.9z M35.5,33.8c0.6-0.4,1.3-0.7,2.1-0.7c1.9,0,3.4,1.5,3.4,3.4c0,1.9-1.5,3.4-3.4,3.4c-1.9,0-3.4-1.5-3.4-3.4
	c0-0.8,0.3-1.5,0.7-2.1l-1.2-1.2c-0.2-0.2-0.2-0.5,0-0.7s0.5-0.2,0.7,0L35.5,33.8z M35.1,36.6c0,1.4,1.1,2.5,2.5,2.5
	c1.4,0,2.5-1.1,2.5-2.5c0-1.4-1.1-2.5-2.5-2.5C36.2,34.1,35.1,35.2,35.1,36.6z M18.4,20.9c0.8,0,1.5-0.3,2.1-0.7l1.2,1.2
	c0.1,0.1,0.2,0.1,0.4,0.1c0.1,0,0.3,0,0.4-0.1c0.2-0.2,0.2-0.5,0-0.7l-1.2-1.2c0.4-0.6,0.7-1.3,0.7-2.1c0-1.9-1.5-3.4-3.4-3.4
	c-1.9,0-3.4,1.5-3.4,3.4S16.5,20.9,18.4,20.9z M18.4,15c1.4,0,2.5,1.1,2.5,2.5c0,1.4-1.1,2.5-2.5,2.5c-1.4,0-2.5-1.1-2.5-2.5
	C16,16.1,17.1,15,18.4,15z M28.5,35.5V39c1.1,0.2,2,1.2,2,2.5c0,1.4-1.1,2.5-2.5,2.5s-2.5-1.1-2.5-2.5c0-1.2,0.9-2.2,2-2.5v-3.6
	c0-0.3,0.2-0.5,0.5-0.5S28.5,35.2,28.5,35.5z M26.5,41.5c0,0.8,0.7,1.5,1.5,1.5s1.5-0.7,1.5-1.5c0-0.8-0.7-1.5-1.5-1.5
	S26.5,40.7,26.5,41.5z M42.5,24.5c-1.2,0-2.2,0.9-2.5,2h-3.6c-0.3,0-0.5,0.2-0.5,0.5s0.2,0.5,0.5,0.5H40c0.2,1.1,1.2,2,2.5,2
	c1.4,0,2.5-1.1,2.5-2.5S43.9,24.5,42.5,24.5z M42.5,28.5c-0.8,0-1.5-0.7-1.5-1.5s0.7-1.5,1.5-1.5c0.8,0,1.5,0.7,1.5,1.5
	S43.3,28.5,42.5,28.5z M19.5,27.5H16c-0.2,1.1-1.2,2-2.5,2c-1.4,0-2.5-1.1-2.5-2.5s1.1-2.5,2.5-2.5c1.2,0,2.2,0.9,2.5,2h3.6
	c0.3,0,0.5,0.2,0.5,0.5S19.8,27.5,19.5,27.5z M12,27c0,0.8,0.7,1.5,1.5,1.5c0.8,0,1.5-0.7,1.5-1.5s-0.7-1.5-1.5-1.5
	C12.7,25.5,12,26.2,12,27z M34,21.5c0.1,0,0.3,0,0.4-0.1l1.2-1.2c0.6,0.4,1.3,0.7,2.1,0.7c1.9,0,3.4-1.5,3.4-3.4
	c0-1.9-1.5-3.4-3.4-3.4c-1.9,0-3.4,1.5-3.4,3.4c0,0.8,0.3,1.5,0.7,2.1l-1.2,1.2c-0.2,0.2-0.2,0.5,0,0.7C33.7,21.5,33.8,21.5,34,21.5
	z M37.6,15c1.4,0,2.5,1.1,2.5,2.5s-1.1,2.5-2.5,2.5c-1.4,0-2.5-1.1-2.5-2.5S36.2,15,37.6,15z M20.5,33.8l1.2-1.2
	c0.2-0.2,0.5-0.2,0.7,0c0.2,0.2,0.2,0.5,0,0.7l-1.2,1.2c0.4,0.6,0.7,1.3,0.7,2.1c0,1.9-1.5,3.4-3.4,3.4c-1.9,0-3.4-1.5-3.4-3.4
	c0-1.9,1.5-3.4,3.4-3.4C19.2,33.1,19.9,33.4,20.5,33.8z M16,36.6c0,1.4,1.1,2.5,2.5,2.5s2.5-1.1,2.5-2.5c0-1.4-1.1-2.5-2.5-2.5
	S16,35.2,16,36.6z"/>
</svg>
